X:72
T:Laoise Kelly
R:reel
C:Paul S. Cranford
O:Cape Breton Island
S:http://www.cranfordpub.com
D:currently unrecorded
B:currently unpublished in book form
Z:psc, (re-formatted,updated 9/17/04)
N:hornpipe played as a reel
H:                                                        copyrights Cranford Publications, SOCAN
L:1/8
Q:333
M:C|
K:E
(3(Bcd)|eEGB GEGB|cAce dBdf|edeb agfe|defg fagf|
eEGB GEGB|cAce dcB=d|cagf gbBd|e2 g2 e2:|
|:ga|begb gbe=d|cagf gfe=d|ceAc BAGE|^DFBd fgaf|
[1begb gbe=d|cagf gfe=d|cagf gbBd|e2 g2 e2 :|
[2eEGB cAce|dfed edcB|cagf gbBd|e2 g2 e2|]
